X: 38738
T: Strike The Gay Harp
R: jig
M: 6/8
K: Dmajor
|:dcB cAA|cAG FED|dBd cAF|AGF EFA|
dcB cAA|dAG FEF|DFA DFA|AGF EFA:|
|:~d3 fdf|a2a afe|ded fdf|e/f/ge ecA|
~d3 fdf|a2a afe|dcB cAF|AGF EFA:|
|:def def|dAG FED|def def|AGF EFA|
def edc|dAG FED|D2D FEF|AGF EFA:|

